public/socials/twitch.svg

<svg xmlns="http://www.w3.org/2000/svg" viewBox="0 0 640 640"><path fill="#a7a7a8" d="M455.4 167.5h-38.6v109.7h38.6zm-106.2-.5h-38.6v109.8h38.6zM185 64l-96.5 91.4v329.2h115.8V576l96.5-91.4h77.3L551.9 320V64zm328.3 237.8-77.2 73.1h-77.2l-67.6 64v-64h-86.9V100.6h308.9z"/></svg>

<svg xmlns="http://www.w3.org/2000/svg" viewBox="0 0 640 640"><!--!Font Awesome Free 7.2.0 by @fontawesome - https://fontawesome.com License - https://fontawesome.com/license/free Copyright 2026 Fonticons, Inc.--><path fill="#a7a7a8" d="M455.4 167.5L416.8 167.5L416.8 277.2L455.4 277.2L455.4 167.5zM349.2 167L310.6 167L310.6 276.8L349.2 276.8L349.2 167zM185 64L88.5 155.4L88.5 484.6L204.3 484.6L204.3 576L300.8 484.6L378.1 484.6L551.9 320L551.9 64L185 64zM513.3 301.8L436.1 374.9L358.9 374.9L291.3 438.9L291.3 374.9L204.4 374.9L204.4 100.6L513.3 100.6L513.3 301.8z"/></svg>
